X:123
T:Waltz. CJF.123
R:Waltz
S:C.J.Fox MS, 1829/33, Beverley,E.Yorks.
B:Kidson Coll.Mitchell Lib.M1805
O:England
A:East Yorkshire
Z:vmp.P J Headford 2000 & 2008
M:3/8
L:1/16
Q:1/8=120
K:G
d” $”c|:B>c(d2g2)|B>c(d2g2)|f>g(a2b2)|g2b2d>c|\
B>cd2g2|B>cd2g2|fgac’fa|g4h:|!
|:g2{fg}|a>fd2a2|b>gd2b2|ge^c2g2|afd2 ad’|\
(d’^c’)(c’b)(ba)|(ag)(gf)(fe)|egfed^c|” D Capo”d^cdcd=c|]

